src/root_files/_common/binary-to-deriv/image/twitter.svg

<svg width="40" height="40" viewBox="0 0 40 40" fill="none" xmlns="http://www.w3.org/2000/svg">
<path d="M0 20C0 8.95431 8.95431 0 20 0C31.0457 0 40 8.95431 40 20C40 31.0457 31.0457 40 20 40C8.95431 40 0 31.0457 0 20Z" fill="#333333"/>
<path d="M32 12.3677C31.1075 12.7692 30.1565 13.0354 29.165 13.1646C30.185 12.54 30.9635 11.5585 31.3295 10.3754C30.3785 10.9569 29.3285 11.3677 28.2095 11.5969C27.3065 10.6108 26.0195 10 24.6155 10C21.8915 10 19.6985 12.2677 19.6985 15.0477C19.6985 15.4477 19.7315 15.8323 19.8125 16.1985C15.722 15.9938 12.1025 13.9831 9.671 10.92C9.2465 11.6754 8.9975 12.54 8.9975 13.4708C8.9975 15.2185 9.875 16.7677 11.183 17.6646C10.3925 17.6492 9.617 17.4138 8.96 17.0431C8.96 17.0585 8.96 17.0785 8.96 17.0985C8.96 19.5508 10.6655 21.5877 12.902 22.0569C12.5015 22.1692 12.065 22.2231 11.612 22.2231C11.297 22.2231 10.979 22.2046 10.6805 22.1369C11.318 24.1354 13.127 25.6046 15.278 25.6523C13.604 26.9954 11.4785 27.8046 9.1775 27.8046C8.774 27.8046 8.387 27.7862 8 27.7354C10.1795 29.1769 12.7625 30 15.548 30C24.602 30 29.552 22.3077 29.552 15.64C29.552 15.4169 29.5445 15.2015 29.534 14.9877C30.5105 14.2769 31.331 13.3892 32 12.3677Z" fill="white"/>
</svg>

<svg width="40" height="40" fill="none" xmlns="http://www.w3.org/2000/svg"><path d="M0 20C0 8.954 8.954 0 20 0s20 8.954 20 20-8.954 20-20 20S0 31.046 0 20Z" fill="#333"/><path d="M32 12.368c-.892.401-1.843.667-2.835.797a4.997 4.997 0 0 0 2.165-2.79 9.685 9.685 0 0 1-3.12 1.222A4.874 4.874 0 0 0 24.614 10c-2.723 0-4.916 2.268-4.916 5.048 0 .4.032.784.113 1.15-4.09-.204-7.71-2.215-10.141-5.278a5.18 5.18 0 0 0-.673 2.55 5.09 5.09 0 0 0 2.185 4.195 4.767 4.767 0 0 1-2.223-.622v.056c0 2.452 1.705 4.489 3.942 4.958-.4.112-.837.166-1.29.166-.315 0-.633-.018-.931-.086.637 1.998 2.446 3.468 4.597 3.515a9.73 9.73 0 0 1-6.1 2.153 8.95 8.95 0 0 1-1.178-.07A13.602 13.602 0 0 0 15.548 30c9.054 0 14.004-7.692 14.004-14.36 0-.223-.008-.439-.018-.652A9.96 9.96 0 0 0 32 12.368Z" fill="#fff"/></svg>
